icons/midnadark/actions/24/offline-settings.svg

<?xml version="1.0"?>
<!-- Created with Inkscape (http://www.inkscape.org/) -->
<svg xmlns:dc="http://purl.org/dc/elements/1.1/" xmlns:cc="http://creativecommons.org/ns#" xmlns:rdf="http://www.w3.org/1999/02/22-rdf-syntax-ns#" xmlns:svg="http://www.w3.org/2000/svg" xmlns="http://www.w3.org/2000/svg" xmlns:sodipodi="http://sodipodi.sourceforge.net/DTD/sodipodi-0.dtd" xmlns:inkscape="http://www.inkscape.org/namespaces/inkscape" width="22" height="22" id="svg18109" version="1.1" inkscape:version="0.48+devel r" sodipodi:docname="network-connect.svg">
  <defs id="defs18111">
    <style type="text/css" id="current-color-scheme">
      .ColorScheme-Text {
        color:#f2f2f2;
      }
      .ColorScheme-Background {
        color:#eff0f1;
      }
      .ColorScheme-Highlight {
        color:#3daee9;
      }
      .ColorScheme-ViewText {
        color:#31363b;
      }
      .ColorScheme-ViewBackground {
        color:#fcfcfc;
      }
      .ColorScheme-ViewHover {
        color:#93cee9;
      }
      .ColorScheme-ViewFocus{
        color:#3daee9;
      }
      .ColorScheme-ButtonText {
        color:#31363b;
      }
      .ColorScheme-ButtonBackground {
        color:#eff0f1;
      }
      .ColorScheme-ButtonHover {
        color:#93cee9;
      }
      .ColorScheme-ButtonFocus{
        color:#3daee9;
      }
      </style>
  </defs>
  <sodipodi:namedview id="base" pagecolor="#ffffff" bordercolor="#666666" borderopacity="1.0" inkscape:pageopacity="0.0" inkscape:pageshadow="2" inkscape:zoom="25.109089" inkscape:cx="11.472758" inkscape:cy="11.992513" inkscape:document-units="px" inkscape:current-layer="layer1" showgrid="true" inkscape:window-width="1366" inkscape:window-height="666" inkscape:window-x="-2" inkscape:window-y="25" inkscape:window-maximized="1" inkscape:showpageshadow="false" showguides="true">
    <inkscape:grid type="xygrid" id="grid4122"/>
    <sodipodi:guide position="3,3.0000174" orientation="-16,0" id="guide4126"/>
    <sodipodi:guide position="3,19.000017" orientation="0,16" id="guide4128"/>
    <sodipodi:guide position="19,19.000017" orientation="16,0" id="guide4130"/>
    <sodipodi:guide position="19,3.0000174" orientation="0,-16" id="guide4132"/>
    <sodipodi:guide position="2,2.0000174" orientation="-18,0" id="guide4134"/>
    <sodipodi:guide position="2,20.000017" orientation="0,18" id="guide4136"/>
    <sodipodi:guide position="20,20.000017" orientation="18,0" id="guide4138"/>
    <sodipodi:guide position="20,2.0000174" orientation="0,-18" id="guide4140"/>
  </sodipodi:namedview>
  <metadata id="metadata18114">
    <rdf:RDF>
      <cc:Work rdf:about="">
        <dc:format>image/svg+xml</dc:format>
        <dc:type rdf:resource="http://purl.org/dc/dcmitype/StillImage"/>
        <dc:title/>
      </cc:Work>
    </rdf:RDF>
  </metadata>
  <g inkscape:label="Capa 1" inkscape:groupmode="layer" id="layer1" transform="translate(0,-1030.3622)">
    <rect style="opacity:1;fill:currentColor;fill-opacity:1;stroke:none;stroke-width:2.79999995;stroke-miterlimit:4;stroke-dasharray:none;stroke-opacity:0.55026455" id="rect4149" width="1" height="21.627001" x="743.63245" y="717.76263" transform="matrix(0.70710678,0.70710678,-0.70710678,0.70710678,0,0)" class="ColorScheme-Text"/>
    <path style="opacity:1;fill:currentColor;fill-opacity:1;stroke:none;stroke-width:2.79999995;stroke-miterlimit:4;stroke-dasharray:none;stroke-opacity:0.55026455" d="M 13.292969 5 L 11.292969 7 L 8 10.292969 L 6 12.292969 L 9.7070312 16 L 11.707031 14 L 15 10.707031 L 17 8.7070312 L 13.292969 5 z " transform="translate(0,1030.3622)" id="rect4151" class="ColorScheme-Text"/>
  </g>
</svg>

<svg xmlns="http://www.w3.org/2000/svg" viewBox="0 0 22 22"><g color="#f2f2f2"><path transform="matrix(.70711.70711-.70711.70711 0-1030.36)" d="m743.63 717.76h1v21.627h-1z"/><path d="m13.293 5l-2 2-3.293 3.293-2 2 3.707 3.707 2-2 3.293-3.293 2-2-3.707-3.707"/></g></svg>
